X:1
T:Title
%%score [ 1 2 3 4 ]
L:1/8
Q:1/4=120
M:3/2
K:Ab
V:1 treble nm="S."
V:2 treble nm="A."
V:3 treble-8 nm="T."
V:4 bass nm="B."
V:1
"^Psalm 145 v. 15"!pp! e8"^Rather slowly"[Q:1/2=72] c4 | A12 | B6 B2 B4- | %3
w: O- cu-|li|om- ni- um|
"^Oculi omnium" B4 (B4 G4) | (c8- c2 B2) | A8 A4 | z4"^Charles Wood""^(1866-1926)" d6 c2 | B12- | %8
w: * in *|Te * *|spe- rant,|Do- mi-|\-ne,|
 B4"^cresc. poco a poco" A4 G4 | F12 | B4 B4 A4 | G4 G8 | z4 (c4 B4) | A6 A2 A4 |!f! (f4 d4) c4 | %15
w: * et Tu|das|es- cam il-|lo- rum|in *|tem- po- re|op * por-|
 B12 | c8 z4 | z4!ff! c6"^marcato" c2 | d12 | B8 (c2 d2) |"^________" e12- | %21
w: tu-|no.|Glo- ri-|a|Ti- bi *|Do|
"^_____" (e4 c4) (d2 e2) | f12- | f8 f2 z2 |"^dim. al fine" (e8 d4 | c8 B2 c2 | d12- | d4 c4 B4) | %28
w: * * mi *|ne.||A *||||
!pp! e12 |] %29
w: men.|
V:2
 z12 |!pp! A8 F4 | D12 | E6 E2 E4- | E4 (E4 C4) | (F8- F2 E2) | D8 D4 | z4 G6 F2 | E12- | %9
w: |O- cu-|li|om- ni- um|* in *|Te * *|spe- rant,|Do- mi-|ne,|
 E4"^cresc. poco a poco" D4 C4 | B,12 | E4 E4 D4 | C4 C8 | z4 (F4 E4) | D6 D2 D4 |!f! (B4 G4) F4 | %16
w: * et Tu|das|es- cam il-|lo- rum|in *|tem- po- re|op * por-|
 E12 | F8 z4 | z4!ff! F6"^marcato" F2 | G12 | E8 (F2 G2) | (A12- | A4 F4) (G2 A2) | B12- | %24
w: tu-|no.|Glo- ri-|a|Ti- bi *|Do|* * mi *|ne.|
 B8 B2 z2 |"^dim. al fine" (A8 _G4 | F8 E2 F2 | !courtesy!=G12) |!pp! A12 |] %29
w: |A *|||men.|
V:3
 z12 | z12 |!pp! d8 B4 | G12 | A6 A2 A4- | A4 (A4 F4) | (B8- B2 A2) | G8 G4 | z4 c6 B2 | A12- | %10
w: ||O- cu-|li|om- ni- um|* in *|Te * *|spe- rant,|Do- mi-|ne,|
 A4"^cresc. poco a poco" G4 F4 | E12 | A4 A4 G4 | F4 F8 | z4 (B4 A4) | G6 G2 G4 |!f! (e4 c4) B4 | %17
w: * et Tu|das|es- cam il-|lo- rum|in *|tem- po- re|op * por-|
 A12 | B8 z4 | z4!ff! B6"^marcato" B2 | c12 | A8 (B2 c2) | (d12- | d4 B4) (c2 d2) | e12- | %25
w: tu-|no.|Glo- ri-|a|Ti- bi *|Do|* * mi *|ne.|
 e8 e2 z2 |"^dim. al fine" (d8 c4 | B4 c4 d4) |!pp! c12 |] %29
w: |A *||men.|
V:4
 z12 | z12 | z12 |!pp! G,8 E,4 | C,12 | D,6 D,2 D,4- | D,4 (D,4 B,,4) | (E,8- E,2 D,2) | C,8 C,4 | %9
w: |||O- cu-|li|om- ni- um|* in *|Te * *|spe- rant,|
 z4 F,6 E,2 | D,12- | D,4"^cresc. poco a poco" C,4 B,,4 | A,,12 | D,4 D,4 C,4 | B,,4 B,,8 | %15
w: Do- mi-|ne,|* et Tu|das|es- cam il-|\-lo- rum|
 z4 (E,4 D,4) | C,6 C,2 C,4 |!f! (A,4 F,4) E,4 | D,12 | E,8 z4 | z4!ff! E,6"^marcato" E,2 | %21
w: in *|tem- po- re|op * por-|tu-|no.|Glo- ri-|
"^This edition ? Andrew Sims 2002" F,12 | D,8 (E,2 F,2) | (G,12- | %24
w: \-a|Ti- bi *|Do|
"^The eyes of all are lifted to thee in hope, and thou givest them their food when it is due.\nGlory be to thee, O Lord. Amen." G,4 E,4) (F,2 G,2) | %25
w: * * mi *|
 A,12- |"^dim. al fine" A,8 A,2 z2 | A,,12 |!pp! A,,12 |] %29
w: ne.||A-|men.|

